X: 1
T: The Cardinal on the fence
R: reel
M: 4/4
L: 1/8
K: Amaj
|:c~A3 AFEF|Acec fcec|fafa e~c2B |ABcA B2fe|
c~A3 AFEF| Acec afab| bafa e~c2A| BABc A3 f:|
|:(a.c’)(a.c’) fa2e|(3aba (3aba (f.a) (f.a)|~f2~e2 cecB | ABcA B2fe |
| (a.c’) (e.a) fa2e| af/af/af/af/ (a.c’) (e.a) | bafa e~c2A| BABc A3 f:|

